X:0
T:South Pond
C:Copyright 2011 Bliss McIntosh
K:C
L:1/8
M:6/8
E|:"Am"A>BA ABd | e2e edB | "G"d2d dBd | "E"(e3e2) E | 
"Am"A>BA ABd | "C"e2e ede |"Am"age "G"ged | "Em"BAG "Am"A3 :| 
G|:"C"EGE EGA | "G" B2B BAG | "Am" (A3A2)B | "Em"d>BA GED | 
"C"EGE "G"GBd | "Am"(e3e2) "G"g | "Am"age "G"ged | "Em"BAG "Am"A3 :|